icons/logo-tiktok.svg

<svg width="24" height="24" viewBox="0 0 24 24" fill="none" xmlns="http://www.w3.org/2000/svg">
<path d="M9.61539 12C8.70255 12 7.81021 12.2639 7.05122 12.7584C6.29222 13.2529 5.70065 13.9557 5.35133 14.7779C5.002 15.6002 4.9106 16.505 5.08869 17.3779C5.26677 18.2508 5.70634 19.0526 6.35182 19.682C6.99729 20.3113 7.81967 20.7399 8.71497 20.9135C9.61027 21.0872 10.5383 20.9981 11.3816 20.6575C12.225 20.3169 12.9458 19.7401 13.4529 19.0001C13.9601 18.26 14.2308 17.39 14.2308 16.5V3C14.2308 4.49184 14.8386 5.92258 15.9205 6.97748C17.0025 8.03237 18.4699 8.625 20 8.625" stroke="#1E293B" stroke-width="2" stroke-linecap="round" stroke-linejoin="round"/>
</svg>

<svg
  width="24"
  height="24"
  viewBox="0 0 24 24"
  xmlns="http://www.w3.org/2000/svg"
  fill="none"
  stroke="currentColor"
  stroke-width="2"
  stroke-linecap="round"
  stroke-linejoin="round"
>
  <path d="M9.615 12a4.7 4.7 0 0 0-2.564.758 4.527 4.527 0 0 0-1.7 2.02 4.396 4.396 0 0 0-.262 2.6 4.467 4.467 0 0 0 1.263 2.304 4.653 4.653 0 0 0 2.363 1.232 4.725 4.725 0 0 0 2.667-.257A4.592 4.592 0 0 0 13.452 19a4.42 4.42 0 0 0 .779-2.5V3c0 1.492.608 2.923 1.69 3.977A5.845 5.845 0 0 0 20 8.625" />
</svg>
